X:21
T:Arcadian Contest. THO5.021, The
M:6/8
L:1/8
B:Thompson's Complete Collection of 200 Favourite Dances Vol.5
F:https://www.libraryofdance.org/manuals/1780c-Thompson-Compleat-5.pdf
Z:vmp. Peter Dunk 2024
Q:3/8=100
K:D
A|d2d def|gfg efg|afd gfg|efd cBA|
d2d def|gfg efg|aba gec|d3 D2:|
|:a|aba agf|gec Ace|gag gfe|fdA FDf|
(d/e/f)d (e/f/g)e|(f/g/a)f (g/a/b)g|afd gec|d3 D2:|
W:
W:Set four and half right and left ./. The same back again ./:
W:Lead down, up again and cast off :/. Right and Left :/:

